X:1
T:Torn Jacket
R:reel
D:Declan Masterson: Tropical Trad
M:C|
L:1/8
%%printtempo 0
Q:180
K:D
"D"F3 A d2 ed|"A"cAAB cded|"D"FEFA dfed|"A"cAGE "D"EDDE|
F3 A d2 ed|"A"cAAB cdec|"D"Adde f2 ed|"A"cAGE "D"EDDE:|
|:"D"FAdf a2 fa|"G"g3 b gfed|"A"cAAB cdef|gfed cAAG|
"D"FAdf a2 fa|"G"g3 b gfef|"G"g2 ba "A"gfed|cAGE "D"ED D2:|
